16x16/apps/qelectrotech.svg

<svg xmlns="http://www.w3.org/2000/svg" width="16" height="16" version="1">
 <rect fill="#f4f4f7" width="16" height="16" x="0" y="0" rx=".857" ry=".857"/>
 <path fill="#474747" d="m8 2.5c-0.704 0-1.4005 0.2755-1.9375 0.8125-0.474 0.474-0.741 1.0685-0.797 1.6875h-2.2655v6.5h4.5v0.75h0.5v-2h-0.5v0.75h-4v-5.5h1.7655c0.056 0.619 0.323 1.2135 0.797 1.6875 1.074 1.074 2.801 1.074 3.875 0 0.474-0.474 0.741-1.0685 0.797-1.6875h1.7655v5.5h-3.5v-1.5h-0.5v3.5h0.5v-1.5h4v-6.5h-2.266c-0.056-0.619-0.322-1.2135-0.7965-1.6875-0.537-0.537-1.2335-0.8125-1.9375-0.8125zm0 0.5155c0.4915 0 0.9815 0.158 1.3905 0.4845l-1.3905 1.3905-1.3905-1.3905c0.409-0.3265 0.899-0.4845 1.3905-0.4845zm-1.75 0.844 1.3905 1.3905-1.3905 1.3905c-0.6525-0.818-0.6525-1.9635 0-2.7815zm3.5 0c0.6525 0.818 0.6525 1.9635 0 2.7815l-1.3905-1.3905 1.3905-1.3905zm-1.75 1.75 1.3905 1.3905c-0.818 0.6525-1.9635 0.6525-2.7815 0l1.3905-1.3905z"/>
</svg>

<svg xmlns="http://www.w3.org/2000/svg" width="16" height="16" version="1"><rect fill="#f4f4f7" width="16" height="16" rx=".857" ry=".857"/><path fill="#474747" d="M8 2.5c-.704 0-1.4.276-1.938.813A2.72 2.72 0 0 0 5.266 5H3v6.5h4.5v.75H8v-2h-.5V11h-4V5.5h1.766a2.72 2.72 0 0 0 .797 1.688 2.733 2.733 0 0 0 3.875 0 2.72 2.72 0 0 0 .796-1.688H12.5V11H9V9.5h-.5V13H9v-1.5h4V5h-2.266a2.717 2.717 0 0 0-.796-1.688A2.732 2.732 0 0 0 8 2.5zm0 .515c.491 0 .982.158 1.39.485L8 4.89 6.61 3.5A2.217 2.217 0 0 1 8 3.016zm-1.75.844L7.64 5.25 6.25 6.64a2.22 2.22 0 0 1 0-2.781zm3.5 0a2.22 2.22 0 0 1 0 2.782l-1.39-1.39L9.75 3.86zM8 5.61 9.39 7A2.22 2.22 0 0 1 6.61 7l1.39-1.39z"/></svg>
